X: 4410
T: "DEPARTURE" GALOP
R: Galop
%R: galop, polka, march
B: James Kerr "Merry Melodies" v.4 p.45 #410
Z: 2016 John Chambers <jc:trillian.mit.edu>
M: 2/4
L: 1/8
K: G
|:\
g>dd>B | B>GG2 | FGAB | GABd |\
g>dd>B | B>GG2 | FGAB | Gz [gB]z ::\
g2fe | fba2 | egfe | defa |\
g2fe | fba2 | egfe | dz [dF]"_D.C."z :|

%%sep 1 1 500
%%sep 1 1 500

